X: 1
T: Duncan Gray   [D]
B: CDS Graded No.18
R: March
M: C
L: 1/4
K: D
|: "D"Ad cd | "A7"ef c2 | "D"d2 "A7"e>g | "D"fd d2 :|
[| "D"fa  ag/f/ | "Em"gg ge/f/ | g>f "E7"ed | "A7"cB A2 ||
|| "D"af "A7"ge | "D"fd "A7"e2 | "D"d2 "A7"e>g | "D"fd d2 |]

